!!!COM: Haydn, Franz Joseph 
!!!OPR: Symphony in D Major 
!!!OTL: Allegro 
!!!OMV: 1 
!!!SCT: H I:31 
!!!SCA: Thematisch-bibliographisches Werkevererzeichnis (A. van Hoboken) 
!!!YOR: Breitkopf & Härtel Edition 
!!!EED: Frances Bennion 
!!!ENC: Frances Bennion 
!!!CDT: 1732/3/31/-1809/5/31/
!!!OCY: Österreich 
!!!YEC: Copyright (c) 1994, 2000 Center for Computer Assisted Research in the Humanities 
!!!YEM: Rights to all derivative editions reserved. 
!!!YEM: Refer to licensing agreement for further details. 
!!!YEN: United States of America 
**kern
*k[f#c#]
*D:
*clefF
*M3/4
*tb16
=1
2.r
=2
2.r
=3
2.r
=4
2.r
=5
2.r
=6
2.r
=7
2.r
=8
2.r
=9
2.r
=10
2.r
=11
2.r
=12
2.r
=13
2.r
=14
2.r
=15
2.r
=16
8r
8aa
8aa
8aa
8aa
8aa
=17
8aa
16gg#
16ff#
16ee
16ff#
16ee
16dd
16cc#
16dd
16cc#
16b
=18
8a
16a
16b
16cc#
16a
16b
16cc#
16dd
16b
16cc#
16dd
=19
8ee
16a
16b
16cc#
16a
16b
16cc#
16dd
16b
16cc#
16dd
=20
8ee
16ee
16ff#
16gg
16ff#
16ee
16dd
16cc#
16b
16a
16g
=21
8f#
8ddd
8ddd
8ddd
8ddd
8ddd
=22
8ddd
16ccc#
16bb
16aa
16bb
16aa
16gg
16ff#
16gg
16ff#
16ee
=23
8dd
16dd
16ee
16ff#
16dd
16ee
16ff#
16gg
16ee
16ff#
16gg
=24
8aa
16dd
16ee
16ff#
16dd
16ee
16ff#
16gg
16ee
16ff#
16gg
=25
4.aa
8ddd
8aa
8ff#
=26
4ff#
8ee
8bb
8gg
8ee
=27
4dd
8cc#
8ee
8cc#
8g
=28
4g
8f#
8ddd
8aa
8ff#
=29
4ff#
8ee
8bb
8gg
8ee
=30
4dd
8cc#
8ee
8cc#
8g
=31
16f#
16d
16e
16f#
16g
16a
16b
16cc#
16dd
16ee
16ff#
16gg
=32
8aa
8a
8a
8a
8a
8a
=33
16g#
16a
16b
16cc#
16dd
16cc#
16b
16a
16g#
16f#
16e
16dd
=34
4cc#
2r
=35
16f#
16d
16e
16f#
16g
16a
16b
16cc#
16dd
16ee
16ff#
16gg
=36
8aa
8a
8a
8a
8a
8a
=37
16g#
16a
16b
16cc#
16dd
16cc#
16b
16a
16g#
16f#
16e
16dd
=38
4cc#
2r
=39
2.r
=40
2.r
=41
8a
16b
16cc#
16dd
16ee
16ff#
16gg#
16aa
16bb
16ccc#
16ddd
=42
4eee
2r
=43
8a
16b
16cc#
16dd
16ee
16ff#
16gg#
16aa
16bb
16ccc#
16ddd
=44
4eee
2r
=45
8a
16b
16cc#
16dd
16ee
16ff#
16gg#
16aa
16bb
16ccc#
16ddd
=46
4eee
2gg
=47
4ff#
4gg#
8.aa
16ee
=48
8ff#
16ee
16dd
4cc#
4b
=49
8a
16b
16cc#
16dd
16ee
16ff#
16gg#
8aa
8ee
=50
16ff#
16aa
16gg#
16ff#
16ee
16aa
16gg#
16ff#
8ee
8a
=51
16ff#
16aa
16gg#
16ff#
16ee
16aa
16gg#
16ff#
8ee
8a
=52
16dd
16ff#
16ee
16dd
16b
16dd
16cc#
16b
8cc#
8aa
=53
8ff#
16ee
16dd
4cc#
4b
=54
4a
2r
=55
2.r
=56
2.r
=57
2.r
=58
4.r
8aa
8aa
8aa
=59
4aa
4gg#
4ff#
=60
4.ee
8ddd
4ccc#
=61
4ddd
4bb
4gg#
=62
4aa
2r
=63
2.r
=64
2.r
=65
2.r
=66
2.r
=67
2.r
=68
2.bb
=69
4aa#
4ff#
4ff#
=70
4ff#
2r
=71
2.r
=72
2.r
=73
2.r
=74
2.r
=75
8g
16a
16b
16cc
16dd
16ee
16ff#
16gg
16aa
16bb
16ccc
=76
4ddd
2r
=77
8g
16a
16b
16cc
16dd
16ee
16ff#
16gg
16aa
16bb
16ccc
=78
4ddd
2r
=79
2.r
=80
8a
16b
16cc#
16dd
16ee
16ff#
16gg#
16aa
16bb
16ccc#
16ddd
=81
4eee
2r
=82
8a
16b
16cc#
16dd
16ee
16ff#
16gg#
16aa
16bb
16ccc#
16ddd
=83
4eee
2r
=84
2.r
=85
2bb
4ddd#
=86
4eee
4ee
4gg
=87
4aa
4b
4aa
=88
4gg
16gg
16ff#
16ee
16dd
8cc#
8b
=89
4a#
2r
=90
2.r
=91
2.r
=92
2.r
=93
2.r
=94
2.r
=95
2.r
=96
[2.bb
=97
2.bb]
=98
2.r
=99
[2.ddd
=100
2.ddd_
=101
2.ddd]
=102
[2.ccc
=103
2.ccc]
=104
[2.bb
=105
2.bb]
=106
[2.aa
=107
2.aa]
=108
16ee
16ff#
16gg
16aa
16bb
16aa
16gg
16ff#
16ee
16dd
16cc#
16b
=109
4a
4aa
4aa
=110
4aa
2r
=111
2.r
=112
2.r
=113
2.r
=114
2.r
=115
2.r
=116
2.r
=117
2.r
=118
2.r
=119
2.r
=120
2.r
=121
2.r
=122
2.r
=123
2.r
=124
2.r
=125
2.r
=126
8r
16a
16b
16cc#
16a
16b
16cc#
16dd
16b
16cc#
16dd
=127
8ee
16cc#
16dd
16ee
16cc#
16dd
16ee
16ff#
16dd
16ee
16ff#
=128
8gg
16ee
16ff#
16gg
16ff#
16ee
16dd
16cc#
16b
16a
16g
=129
8f#
16dd
16ee
16ff#
16dd
16ee
16ff#
16gg
16ee
16ff#
16gg
=130
4.aa
8ddd
8aa
8ff#
=131
4ff#
8ee
8bb
8aa
8gg
=132
4ff#
4f#
4e
=133
8d
16e
16f#
16g
16a
16b
16cc#
16dd
16ee
16ff#
16gg
=134
4aa
2r
=135
8d
16e
16f#
16g
16a
16b
16cc#
16dd
16ee
16ff#
16gg
=136
4aa
2r
=137
8d
16e
16f#
16g
16a
16b
16cc#
16dd
16ee
16ff#
16gg
=138
2aa
4ccc
=139
4bb
4ccc#
8.ddd
16aa
=140
8bb
16aa
16gg
4ff#
4ee
=141
8dd
16ee
16ff#
16gg
16aa
16bb
16ccc#
8ddd
8aa
=142
16bb
16ddd
16ccc#
16bb
16aa
16ddd
16ccc#
16bb
8aa
8dd
=143
16bb
16ddd
16ccc#
16bb
16aa
16ddd
16ccc#
16bb
8aa
8dd
=144
16cc#
16dd
16ee
16ff#
16gg
16bb
16aa
16gg
8ff#
8ddd
=145
8bb
16aa
16gg
4ff#
4ee
=146
4dd
2r
=147
2.r
=148
2.r
=149
2.r
=150
4.r
8ddd
8ddd
8ddd
=151
4ddd
4ccc#
4bb
=152
4.aa
8gg
4ff#
=153
4gg
4ee
4cc#
=154
4dd
2r
=155
2.r
=156
2.r
=157
2.r
=158
4ddd
2r
=159
4ddd
4ddd
4ddd
=160
4ddd
2r
==
*-
!!!RWG1: This file contains only pitch and duration data.
!!!RWG2: Transposing instruments are not transposed.
!!!RWG3: Spines may have incompatible meters.
!!!RWG4: Durations of rests and tied notes may be interpreted.
!!!RWG: Key is interpreted using the Humdrum key tool.
!!!OPT: Hornsignal 
!!!AFT: stage1 
!!!END: 2000/12/13
!!format changes:
!!content changes:
!!public access: complete
!!!KEY: 2153172216
!!!EMD: Converted from MuseData to Humdrum Dec 16, 2000, by Andreas Kornstaedt using muse2kern.
